!!!COM: Mozart, Wolfgang Amadeus
!!!OPR: Quartet in G Major
!!!OTL:
!!!OMV: 2
!!!SCT: K 387
!!!SCA: Chronologisch-thematisches Verzeichnis sämtlicher Tonwerke Wolfgang Amade Mozarts (L. von Köchel; 1862, 2/1905, 3/1937, 1947)
!!!YOR: Breitkopf & Härtel Edition
!!!EED: Frances Bennion
!!!ENC: Frances Bennion
!!!CDT: 1756/1/27/-1791/12/5/
!!!OCY: Österreich
!!!YEC: Copyright (c) 1994, 2000 Center for Computer Assisted Research in the Humanities
!!!YEM: Rights to all derivative editions reserved.
!!!YEM: Refer to licensing agreement for further details.
!!!YEN: United States of America
**kern	**kern	**kern	**kern
*k[f#]	*k[f#]	*k[f#]	*k[f#]
*G:	*G:	*G:	*G:
*clefG	*clefG	*clefF	*clefC
*M3/4	*M3/4	*M3/4	*M3/4
*tb32	*tb32	*tb32	*tb32
=1	=1	=1	=1
4gg	2r	2r	2r
4dd	.	.	.
4r	4dd	4d	4G
=2	=2	=2	=2
4dd	2r	2r	2r
4b	.	.	.
4r	4g	4B	4GG
=3	=3	=3	=3
4b	2.r	2.r	2.r
4cc	.	.	.
4cc#	.	.	.
=4	=4	=4	=4
4dd	2.r	2.r	2.r
4dd#	.	.	.
4ee	.	.	.
=5	=5	=5	=5
4a	2.r	2.r	2.r
4b-	.	.	.
4b	.	.	.
=6	=6	=6	=6
4cc	2.r	2.r	2.r
4cc#	.	.	.
4dd	.	.	.
=7	=7	=7	=7
[2.g	2.r	2.B	4G
.	.	.	4F#
.	.	.	4F
=8	=8	=8	=8
4g]	[2.g	2c	4E
4cc	.	.	4E-
[4b	.	4d	4D
=9	=9	=9	=9
8b]	4.g]	2.e	4C
8a	.	.	.
8ee	.	.	4AA
8cc	8e	.	.
8b	8d	.	4C
8a	8c	.	.
=10	=10	=10	=10
8g	8B	4d	4D
8f#	8A	.	.
8dd	8b	2r	2r
8b	8g	.	.
8cc	8a	.	.
8a	8f#	.	.
=11	=11	=11	=11
8ff#	2r	2r	2r
8gg	.	.	.
4dd	.	.	.
4r	4b	4d	4G
=12	=12	=12	=12
8cc#	2r	2r	2r
8dd	.	.	.
4b	.	.	.
4r	4g	4B	4GG
=13	=13	=13	=13
2.r	4b	2.r	2.r
.	4cc	.	.
.	4cc#	.	.
=14	=14	=14	=14
[2gg	4dd	4B	2.r
.	4dd#	4c	.
8gg]	4ee	4c#	.
16aa	.	.	.
16gg	.	.	.
=15	=15	=15	=15
4ff#	4a	4d	2.r
2r	4b-	2r	.
.	4b	.	.
=16	=16	=16	=16
[2ff	4cc	4A	2.r
.	4cc#	4B-	.
8ff]	4dd	4B	.
16gg	.	.	.
16ff	.	.	.
=17	=17	=17	=17
4ee	4g	4c	4r
4ff#	4cc	4d	4A
4gg	4b	4e	4G
=18	=18	=18	=18
4aa	4a	4f#	4F#
4bb	4g	4g	4E
[4ccc	4f#	4a	4D
=19	=19	=19	=19
8ccc]	4dd	2g	4G
8bb	.	.	.
8aa	8cc#	.	4r
8gg	8b	.	.
8ff#	8a	4b	4GG
8ee	8g	.	.
=20	=20	=20	=20
2dd	2f#	8a	4AA
.	.	8a	.
.	.	8g#	4A
.	.	8a	.
4cc#	4e	8g	4r
.	.	8e	.
=21	=21	=21	=21
2aa	8f#	2.d	4D
.	8a	.	.
.	8d	.	4F#
.	8a	.	.
8.dd	8f#	.	4D
.	8a	.	.
16cc#	.	.	.
=22	=22	=22	=22
4cc#	4g	8e	4A
.	.	8a	.
2r	2r	8g#	2r
.	.	8a	.
.	.	8g	.
.	.	8f#	.
=23	=23	=23	=23
2aa	8c#	2e	4AA
.	8a	.	.
.	8A	.	4C#
.	8a	.	.
8.ee	8g	8.c#	4AA
.	8a	.	.
16dd	.	16d	.
=24	=24	=24	=24
4dd	4f#	8d	4D
.	.	8a	.
2r	2r	8g#	2r
.	.	8a	.
.	.	8g	.
.	.	8e	.
=25	=25	=25	=25
2aa	8f#	2d	4D
.	8a	.	.
.	8d	.	4F#
.	8a	.	.
8.ff#	8dd	4A	4D
.	8a	.	.
16ee	.	.	.
=26	=26	=26	=26
4ee	2b	4G	2.G
4gg	.	4B	.
4bb	4cc#	4e	.
=27	=27	=27	=27
8bb	4dd	4A	4F#
8aa	.	.	.
8gg	4b	4B	4G
8ff#	.	.	.
8ee	4g	4c#	4A
8ff#	.	.	.
=28	=28	=28	=28
4dd	4f#	4d	4D
4r	2r	2r	4d
8.dd	.	.	4r
16ee	.	.	.
=29	=29	=29	=29
4ff#	4e	4c#	4A#
4ff#	4e	4c#	4A#
4ff#	4e	4c#	4A#
=30	=30	=30	=30
8ff#	4d	4B	4B
8bb	.	.	.
8aa#	2r	2r	2r
8aa	.	.	.
8gg#	.	.	.
8gg	.	.	.
=31	=31	=31	=31
4ff#	8ee	4A#	2.r
.	8cc#	.	.
4ff#	8ee	4A#	.
.	8cc#	.	.
4ff#	8ee	4A#	.
.	8cc#	.	.
=32	=32	=32	=32
8ff#	4b	4B	2.r
8bb	.	.	.
8aa#	2r	2r	.
8aa	.	.	.
8gg#	.	.	.
8gg	.	.	.
=33	=33	=33	=33
8ff#	8b	8d	4G#
8ee	8dd	8B	.
4ee	8b	8d	4G#
.	8dd	8B	.
4ee	8b	8d	4G#
.	8dd	8B	.
=34	=34	=34	=34
8ee	2cc#	2e	2A
8bb	.	.	.
8aa	.	.	.
8gg#	.	.	.
8gg	4dd	4d	4B
8ff#	.	.	.
=35	=35	=35	=35
8ff#	4b	4g	4G
8ee	.	.	.
4dd	4a	4f#	4A
4cc#	4g	4e	4AA
=36	=36	=36	=36
4dd	8f#	4d	4D
.	8dd	.	.
2r	8cc#	2r	2r
.	8cc	.	.
.	8b	.	.
.	8b-	.	.
=37	=37	=37	=37
8ee	[2.a	8c#	4AA
8ff#	.	8d	.
8gg	.	8e	4r
8aa	.	8f#	.
8bb	.	8g	4c#
8aa	.	8f#	.
=38	=38	=38	=38
4aa	4a]	8f#	4d
.	.	8dd	.
2r	2r	8cc#	2r
.	.	8cc	.
.	.	8b	.
.	.	8b-	.
=39	=39	=39	=39
8a	8c#	[2.a	4A
8b	8d	.	.
8cc#	8e	.	4r
8dd	8f#	.	.
8ee	8g	.	4AA
8dd	8f#	.	.
=40	=40	=40	=40
4dd	4f#	4a]	4D
2r	2r	2r	4d
.	.	.	4r
=41	=41	=41	=41
2r	2r	2r	4D
.	.	.	4F#
4dd	4f#	4a	4r
=42	=42	=42	=42
2r	2r	2r	4F#
.	.	.	4A
4dd	4f#	4a	4r
=43	=43	=43	=43
2.r	2.r	2.r	4A
.	.	.	4d
.	.	.	4f#
=44	=44	=44	=44
2.r	2.r	4c	[2.a
.	.	4f#	.
.	.	4a	.
=45	=45	=45	=45
2.r	4f#	[2.cc	2.a_
.	4a	.	.
.	4cc	.	.
=46	=46	=46	=46
4cc	[2.ff#	2.cc]	2.a_
4ff#	.	.	.
4aa	.	.	.
=47	=47	=47	=47
2.ddd#	2.ff#]	[2.b	2.a]
=48	=48	=48	=48
4eee	4ee	2.b]	4g
4aa	4dd#	.	4f#
4gg	4ee	.	4e
=49	=49	=49	=49
4ff#	4cc	4a	4A
4aa	4r	4r	4r
4dd#	4a	4f#	4B
=50	=50	=50	=50
4ee	4g	4e	4E
2r	2r	2r	4G
.	.	.	4B
=51	=51	=51	=51
4ee	4cc#	4g	2.e
4gg	4ee	4cc#	.
4ccc#	4gg	4ee	.
=52	=52	=52	=52
4ddd	4dd	2.a	4f#
4gg	4ee	.	4c#
4ff#	4dd	.	4d
=53	=53	=53	=53
4ee	4b	4g	4G
4gg	4r	4r	4r
4cc#	4g	4e	4A
=54	=54	=54	=54
8dd	4f#	4d	4D
8cc#	.	.	.
8dd	2r	2r	2r
8cc#	.	.	.
8dd	.	.	.
8cc#	.	.	.
=55	=55	=55	=55
[2.dd	4b-	4g	4G
.	8.r	8.r	8.r
.	16cc	16a	16F#
.	4b-	4g	4G
=56	=56	=56	=56
8dd]	4a	4f#	4D
8c#	.	.	.
8d	2r	2r	2r
8c#	.	.	.
8d	.	.	.
8c#	.	.	.
=57	=57	=57	=57
[2.d	4B-	4G	4GG
.	8.r	8.r	8.r
.	16c	16A	16FF#
.	4B-	4G	4GG
=58	=58	=58	=58
8d]	4A	4F#	4DD
8cc#	.	.	.
8dd	2r	2r	2r
8cc#	.	.	.
8dd	.	.	.
8cc#	.	.	.
=59	=59	=59	=59
[2.dd	8r	8r	2.r
.	8a	8f#	.
.	8b-	8g	.
.	8a	8f#	.
.	8b-	8g	.
.	8a	8f#	.
=60	=60	=60	=60
8dd]	[2.b-	[2.g	[2.d
8dd#	.	.	.
8ee	.	.	.
8dd#	.	.	.
8ee	.	.	.
8dd#	.	.	.
=61	=61	=61	=61
[2.ee	8b-]	8g]	2.d_
.	8b	8g#	.
.	8cc	8a	.
.	8b	8g#	.
.	8cc	8a	.
.	8b	8g#	.
=62	=62	=62	=62
8ee]	2.cc	2.a	2.d]
8ff#	.	.	.
8gg	.	.	.
8ff#	.	.	.
8gg	.	.	.
8ff#	.	.	.
=63	=63	=63	=63
4gg	2r	2r	2r
4dd	.	.	.
4r	4b	4g	4G
=64	=64	=64	=64
4dd	2r	2r	2r
4b	.	.	.
4r	4g	4B	4GG
=65	=65	=65	=65
2.r	4b	2.r	2.r
.	4cc	.	.
.	4cc#	.	.
=66	=66	=66	=66
[2gg	4dd	4B	2.r
.	4dd#	4c	.
8gg]	4ee	4c#	.
16aa	.	.	.
16gg	.	.	.
=67	=67	=67	=67
4ff#	4a	4d	2.r
2r	4b-	2r	.
.	4b	.	.
=68	=68	=68	=68
4A	4cc	2.r	[2F
4B-	4cc#	.	.
4B	4dd	.	8F]
.	.	.	16G
.	.	.	16F
=69	=69	=69	=69
4c	4g	4g	4E
2r	2r	4a-	2r
.	.	4a	.
=70	=70	=70	=70
2.r	[2gg	4b-	[2E-
.	.	4b	.
.	8gg]	4cc	8E-]
.	16aa	.	16F
.	16gg	.	16E-
=71	=71	=71	=71
[2ccc	4ff#	[2a	4D
.	4ee	.	4E
8ccc]	[4dd	8a]	4F#
16ddd	.	16b	.
16ccc	.	16a	.
=72	=72	=72	=72
4bb	4dd]	4g	4G
4ff#	4cc	4a	4D#
4gg	4b	4g	4E
=73	=73	=73	=73
4ee	4A	2G	4C
4dd	4B	.	4D
4f#	4c	4A	4DD
=74	=74	=74	=74
2dd	8B	2.G	4GG
.	8d	.	.
.	8G	.	4BB
.	8d	.	.
8.g	8B	.	4GG
.	8d	.	.
16f#	.	.	.
=75	=75	=75	=75
4f#	4c	8A	4D
.	.	8d	.
2r	2r	8c#	2r
.	.	8d	.
.	.	8c	.
.	.	8B	.
=76	=76	=76	=76
2dd	8c	2A	4DD
.	8d	.	.
.	8A	.	4FF#
.	8d	.	.
8.a	8c	8.F#	4DD
.	8d	.	.
16g	.	16G	.
=77	=77	=77	=77
4g	4B	8G	4GG
.	.	8d	.
2r	2r	8c#	2r
.	.	8d	.
.	.	8c	.
.	.	8A	.
=78	=78	=78	=78
2ddd	2dd	8B	4GG
.	.	8g	.
.	.	8G	4BB
.	.	8g	.
8.bb	8.b	8d	4GG
.	.	8g	.
16aa	16a	.	.
=79	=79	=79	=79
4aa	4a	2e	2.C
4ccc	4cc	.	.
4eee	4ee	4f#	.
=80	=80	=80	=80
8eee	8ee	4g	4BB
8ddd	8dd	.	.
8ccc	8cc	4e	4C
8bb	8b	.	.
8aa	8a	4f# 4c	4D
8bb	8b	.	.
=81	=81	=81	=81
4gg	4g	4g 4B	4GG
2r	2r	4r	4G
.	.	8.g	4r
.	.	16a	.
=82	=82	=82	=82
2.r	8a	4b	4D#
.	8f#	.	.
.	8a	4b	4D#
.	8f#	.	.
.	8a	4b	4D#
.	8f#	.	.
=83	=83	=83	=83
2.r	4g	8b	4E
.	.	8ee	.
.	2r	8dd#	2r
.	.	8dd	.
.	.	8cc#	.
.	.	8cc	.
=84	=84	=84	=84
8aa	4b	4b	4d#
8ff#	.	.	.
8aa	4b	2r	4d#
8ff#	.	.	.
8aa	4b	.	4d#
8ff#	.	.	.
=85	=85	=85	=85
4gg	8b	2.r	4e
.	8ee	.	.
2r	8dd#	.	2r
.	8dd	.	.
.	8cc#	.	.
.	8cc	.	.
=86	=86	=86	=86
8b	8b	8E	4C#
8a	8a	8G	.
4a	8g	8E	4C#
.	8e	8G	.
4a	8g	8E	4C#
.	8e	8G	.
=87	=87	=87	=87
8a	4d	4F#	2D
8ee	.	.	.
8dd	4f#	4A	.
8cc#	.	.	.
8cc	4g	4G	4E
8b	.	.	.
=88	=88	=88	=88
8b	4e	4c	4C
8a	.	.	.
4g	4d	4B	4D
4f#	4c	4A	4DD
=89	=89	=89	=89
8g	4B	4G	4GG
8gg	.	.	.
8ff#	2r	2r	2r
8ff	.	.	.
8ee	.	.	.
8ee-	.	.	.
=90	=90	=90	=90
[2.dd	8a	8f#	4d
.	8b	8g	.
.	8cc	8a	4r
.	8dd	8b	.
.	8ee	8cc	4F#
.	8dd	8b	.
=91	=91	=91	=91
4dd]	4dd	8b	4G
.	.	8g	.
2r	2r	8f#	2r
.	.	8f	.
.	.	8e	.
.	.	8e-	.
=92	=92	=92	=92
8r	4f#	4d	4D
8dd	.	.	.
8ee-	4g	4c#	4r
8ee	.	.	.
8ff	4a	4c	4DD
8ff#	.	.	.
=93	=93	=93	=93
4gg	4g	4B	4GG
2r	2r	2r	4G
.	.	.	4r
=94	=94	=94	=94
4G	4G	4G	4GG
4r	4r	4r	4r
8.B-	8.B-	8.B-	4BB-
32A	32A	32A	.
32B-	32B-	32B-	.
=95	=95	=95	=95
4d	4d	4d	4D
4r	4r	4r	4r
8.g	8.g	8.g	4G
32f#	32f#	32f#	.
32g	32g	32g	.
=96	=96	=96	=96
4b-	4b-	4b-	4B-
4r	4r	4r	4r
4g	4g	4G	4G
=97	=97	=97	=97
4cc#	4cc#	4c#	4c#
4dd	4dd	4d	4d
4r	4r	4r	4r
=98	=98	=98	=98
4c	2.r	2.r	2.r
4ee-	.	.	.
4ee-	.	.	.
=99	=99	=99	=99
4g	2c	2A	2D
4f#	.	.	.
4g	4c#	4G	4E
=100	=100	=100	=100
4a	4d	4F#	2.F#
4dd	4f#	4A	.
4cc	4a	4d	.
=101	=101	=101	=101
4b-	4g	4d	4G
4a	4f#	4d	4D
4r	4r	4r	4r
=102	=102	=102	=102
4G	4G	4G	4GG
4r	4r	4r	4r
8.B-	8.B-	8.B-	4BB-
32A	32A	32A	.
32B-	32B-	32B-	.
=103	=103	=103	=103
4d	4d	4d	4D
4r	4r	4r	4r
8.g	8.g	8.g	4G
32f#	32f#	32f#	.
32g	32g	32g	.
=104	=104	=104	=104
4b-	4b-	4b-	4B-
4r	4r	4r	4r
4g	4g	4G	4G
=105	=105	=105	=105
4cc#	4cc#	4c#	4c#
4dd	4dd	4d	4d
8.r	8.r	8.r	8.r
16d	16d	16D	16D
=106	=106	=106	=106
4dd	4dd	4d	4d
4ee-	4ee-	4e-	4e-
4r	4r	4r	4r
=107	=107	=107	=107
4r	[2.e-	2.G	2.E-
4ee-	.	.	.
4ee-	.	.	.
=108	=108	=108	=108
4r	2.e-_	2.A	2.F
8.ee-	.	.	.
16dd	.	.	.
4ee-	.	.	.
=109	=109	=109	=109
4r	2.e-]	2.B-	2.G
4ee-	.	.	.
4ee-	.	.	.
=110	=110	=110	=110
4r	2.f	2.c	2.A
8.ee-	.	.	.
16dd	.	.	.
4ee-	.	.	.
=111	=111	=111	=111
4r	2.g	2.d	2.B-
4ee-	.	.	.
4gg	.	.	.
=112	=112	=112	=112
4ff	2a	2e-	2c
4ee-	.	.	.
4dd	4b-	4f	4d
=113	=113	=113	=113
4cc	4g	4e-	4E-
4b-	4f	4d	4F
4a	4e-	4c	4FF
=114	=114	=114	=114
4b-	4d	4B-	4BB-
4dd	2r	2r	2r
4ff	.	.	.
=115	=115	=115	=115
2.gg#	[2.ff 2.dd	4B-	2.r
.	.	4d	.
.	.	4f	.
=116	=116	=116	=116
4aa	4ff 4dd]	4d	4AA
2r	2r	2r	4D
.	.	.	4F
=117	=117	=117	=117
2.cc#	2.g	2.e	2.A
=118	=118	=118	=118
4dd	4f	4d	4D
2r	2r	2r	2r
=119	=119	=119	=119
4ff	2.r	2.r	2.r
4ee-	.	.	.
4dd	.	.	.
=120	=120	=120	=120
2cc	4a-	4f	2.r
.	4g	4e-	.
4b	4f	4d	.
=121	=121	=121	=121
4aa-	4e-	4c	2.r
4gg	4d	4B	.
[4ff	[4b	[4d	.
=122	=122	=122	=122
4ff]	4b]	4d]	4C
4ee-	4cc	4c	4AA-
4r	4r	4r	4GG
=123	=123	=123	=123
4r	4r	4r	4FF#
4dd	4d	4F#	2r
4a	4f#	4D	.
=124	=124	=124	=124
4cc	4a	4d	4G
4b-	4g	4e-	4E-
4r	4r	4r	4D
=125	=125	=125	=125
4r	4r	4r	4C#
4gg	4b-	4c#	4r
4b-	4g	4e	4c#
=126	=126	=126	=126
4b-	4g	4d	4d
4a	4f#	4d	4D
4r	4r	4r	4r
=127	=127	=127	=127
4G	4G	4G	4GG
4r	4r	4r	4r
8.B-	8.B-	8.B-	4BB-
32A	32A	32A	.
32B-	32B-	32B-	.
=128	=128	=128	=128
4d	4d	4d	4D
4r	4r	4r	4r
8.g	8.g	8.g	4G
32f#	32f#	32f#	.
32g	32g	32g	.
=129	=129	=129	=129
4b-	4b-	4b-	4B-
4r	4r	4r	4r
4g	4g	4G	4G
=130	=130	=130	=130
4cc#	4cc#	4c#	4c#
4dd	4dd	4d	4d
8.r	8.r	8.r	8.r
16d	16d	16D	16D
=131	=131	=131	=131
4b	4b	4B	4B
4cc	4cc	4c	4c
4r	4r	4r	4r
=132	=132	=132	=132
4r	[2.c	2.E	2.CC
4cc	.	.	.
4cc	.	.	.
=133	=133	=133	=133
4r	2.c_	2.F#	2.DD
8.cc	.	.	.
16b	.	.	.
4cc	.	.	.
=134	=134	=134	=134
4r	2.c_	2.G	2.EE-
4ccc	.	.	.
4cc	.	.	.
=135	=135	=135	=135
4r	2.c_	2.B-	2.EE
8.cc	.	.	.
16b	.	.	.
4cc	.	.	.
=136	=136	=136	=136
4r	2.c]	[2.A	2.FF
4ccc	.	.	.
4cc	.	.	.
=137	=137	=137	=137
4r	[2.d	2.A]	2.FF#
4ccc	.	.	.
4cc	.	.	.
=138	=138	=138	=138
4r	4d]	2.B-	2.GG
4ccc	[2e	.	.
4cc	.	.	.
=139	=139	=139	=139
4r	4e]	[2.c	2.AA-
4ddd	[2f	.	.
4dd	.	.	.
=140	=140	=140	=140
4r	4f]	2.c]	2.AA
4eee-	2f#	.	.
4ee-	.	.	.
=141	=141	=141	=141
4dd	4g	4d	4BB-
4cc	4f#	4A	4D
4b-	4g	4G	4E-
=142	=142	=142	=142
4a	4e-	4c	4C
4g	4d	4B-	4D
4f#	4c	4A	4DD
=143	=143	=143	=143
4g	4B-	4G	4GG
4b-	2r	2r	2r
4dd	.	.	.
=144	=144	=144	=144
2.gg	2.cc#	4e-	2.r
.	.	4g	.
.	.	4b-	.
=145	=145	=145	=145
4ddd	4dd	4b-	4DD
2r	2r	2r	4GG
.	.	.	4BB-
=146	=146	=146	=146
2.f#	2.c	2.A	2.D
=147	=147	=147	=147
4g	4B-	4G	4GG
2r	2r	2r	2r
==	==	==	==
*-	*-	*-	*-
!!!RWG1: This file contains only pitch and duration data.
!!!RWG2: Transposing instruments are not transposed.
!!!RWG3: Spines may have incompatible meters.
!!!RWG4: Durations of rests and tied notes may be interpreted.
!!!RWG: Key is interpreted using the Humdrum key tool.
!!!AFT: stage1
!!!END: 1997/04/15
!!format changes:
!!content changes:
!!public access: complete
!!!KEY: 3393006665
!!!EMD: Converted from MuseData to Humdrum Dec 16, 2000, by Andreas Kornstaedt using muse2kern.
